2/images/PSW-7.svg

<svg width="318" height="317" viewBox="0 0 318 317" fill="none" xmlns="http://www.w3.org/2000/svg">
<g id="PSW-7">
<path id="Stroke 1" d="M143.42 8.99951C67.9 16.7895 9 80.6195 9 158.2C9 241.04 76.16 308.2 159 308.2C236.59 308.2 300.41 249.3 308.2 173.78" stroke="#B2B2B2" stroke-width="2" stroke-linecap="round" stroke-linejoin="round"/>
<path id="Stroke 3" d="M174.58 8.99951C244.99 16.2605 300.94 72.2205 308.2 142.62" stroke="#231F20" stroke-width="2" stroke-linecap="round" stroke-linejoin="round"/>
<path id="Stroke 5" d="M46.87 201.02C41.78 187.72 39 173.29 39 158.2C39 128.07 50.099 100.54 68.44 79.4702" stroke="#B2B2B2" stroke-width="2" stroke-linecap="round" stroke-linejoin="round"/>
<path id="Stroke 7" d="M59.8105 225.75C81.4115 257.41 117.782 278.2 159.001 278.2C220.001 278.2 270.362 232.69 278.001 173.78" stroke="#B2B2B2" stroke-width="2" stroke-linecap="round" stroke-linejoin="round"/>
<path id="Stroke 9" d="M89.0488 60.6802C104.759 49.3902 123.309 41.8102 143.419 39.2002" stroke="#B2B2B2" stroke-width="2" stroke-linecap="round" stroke-linejoin="round"/>
<path id="Stroke 11" d="M269.061 110.299C273.471 120.419 276.532 131.27 278.001 142.619" stroke="#231F20" stroke-width="2" stroke-linecap="round" stroke-linejoin="round"/>
<path id="Stroke 13" d="M174.58 39.1997C204.14 43.0297 230.32 57.6197 249.07 78.8997" stroke="#231F20" stroke-width="2" stroke-linecap="round" stroke-linejoin="round"/>
<path id="Stroke 15" d="M174.58 69.5493C211.809 76.0393 241.17 105.4 247.65 142.619" stroke="#231F20" stroke-width="2" stroke-linecap="round" stroke-linejoin="round"/>
<path id="Stroke 17" d="M211.789 231.08C230.339 217.641 243.549 197.28 247.649 173.78" stroke="#B2B2B2" stroke-width="2" stroke-linecap="round" stroke-linejoin="round"/>
<path id="Stroke 19" d="M143.42 69.5493C101.14 76.9193 69 113.81 69 158.199C69 207.9 109.3 248.199 159 248.199C168.731 248.199 178.11 246.65 186.89 243.779" stroke="#B2B2B2" stroke-width="2" stroke-linecap="round" stroke-linejoin="round"/>
<path id="Stroke 21" d="M174.58 100.25C195.2 105.771 211.43 122 216.96 142.62" stroke="#231F20" stroke-width="2" stroke-linecap="round" stroke-linejoin="round"/>
<path id="Stroke 23" d="M143.42 100.25C117.84 107.101 99 130.45 99 158.2C99 191.34 125.87 218.2 159 218.2C186.75 218.2 210.1 199.36 216.96 173.78" stroke="#B2B2B2" stroke-width="2" stroke-linecap="round" stroke-linejoin="round"/>
<path id="Stroke 25" fill-rule="evenodd" clip-rule="evenodd" d="M174.002 158.199C174.002 149.915 167.286 143.199 159.002 143.199C150.718 143.199 144.002 149.915 144.002 158.199C144.002 166.483 150.718 173.199 159.002 173.199C167.286 173.199 174.002 166.483 174.002 158.199Z" stroke="#231F20" stroke-width="2" stroke-linecap="round" stroke-linejoin="round"/>
<path id="Stroke 25_2" fill-rule="evenodd" clip-rule="evenodd" d="M316.413 158.199C316.413 71.4929 245.936 1.19873 159.004 1.19873C72.0714 1.19873 1.59375 71.4929 1.59375 158.199C1.59375 244.905 72.0714 315.199 159.004 315.199C245.936 315.199 316.413 244.905 316.413 158.199Z" stroke="#231F20" stroke-width="2" stroke-linecap="round" stroke-linejoin="round"/>
<path id="Stroke 27" d="M174.002 158.199H308.199" stroke="#231F20" stroke-width="2" stroke-linecap="round" stroke-linejoin="round"/>
<path id="Stroke 29" fill-rule="evenodd" clip-rule="evenodd" d="M209.734 238.2C209.734 243.722 205.257 248.2 199.734 248.2C194.212 248.2 189.734 243.722 189.734 238.2C189.734 232.678 194.212 228.2 199.734 228.2C205.257 228.2 209.734 232.678 209.734 238.2Z" stroke="#B2B2B2" stroke-width="2" stroke-linecap="round" stroke-linejoin="round"/>
<path id="Stroke 31" fill-rule="evenodd" clip-rule="evenodd" d="M204.734 238.2C204.734 240.962 202.496 243.2 199.734 243.2C196.973 243.2 194.734 240.962 194.734 238.2C194.734 235.438 196.973 233.2 199.734 233.2C202.496 233.2 204.734 235.438 204.734 238.2Z" stroke="#B2B2B2" stroke-width="2" stroke-linecap="round" stroke-linejoin="round"/>
<path id="Stroke 33" fill-rule="evenodd" clip-rule="evenodd" d="M72.9376 77.8561C68.1546 75.0941 66.5156 68.9791 69.2766 64.1961C72.0386 59.4131 78.1546 57.7741 82.9376 60.5361C87.7196 63.2971 89.3586 69.4131 86.5976 74.1961C83.8356 78.9791 77.7196 80.6181 72.9376 77.8561Z" stroke="#B2B2B2" stroke-width="2" stroke-linecap="round" stroke-linejoin="round"/>
<path id="Stroke 35" fill-rule="evenodd" clip-rule="evenodd" d="M75.4365 73.5263C73.0445 72.1453 72.2255 69.0883 73.6065 66.6963C74.9865 64.3043 78.0445 63.4853 80.4365 64.8663C82.8275 66.2473 83.6465 69.3043 82.2665 71.6963C80.8855 74.0883 77.8275 74.9073 75.4365 73.5263Z" stroke="#B2B2B2" stroke-width="2" stroke-linecap="round" stroke-linejoin="round"/>
<path id="Stroke 37" fill-rule="evenodd" clip-rule="evenodd" d="M47.4705 222.503C42.6875 219.741 41.0485 213.625 43.8105 208.843C46.5715 204.06 52.6875 202.421 57.4705 205.183C62.2535 207.943 63.8925 214.06 61.1305 218.843C58.3685 223.625 52.2535 225.264 47.4705 222.503Z" stroke="#B2B2B2" stroke-width="2" stroke-linecap="round" stroke-linejoin="round"/>
<path id="Stroke 39" fill-rule="evenodd" clip-rule="evenodd" d="M49.9697 218.173C47.5777 216.792 46.7587 213.735 48.1397 211.343C49.5207 208.951 52.5777 208.132 54.9697 209.513C57.3617 210.893 58.1807 213.951 56.7997 216.343C55.4187 218.735 52.3617 219.554 49.9697 218.173Z" stroke="#B2B2B2" stroke-width="2" stroke-linecap="round" stroke-linejoin="round"/>
<path id="Stroke 41" fill-rule="evenodd" clip-rule="evenodd" d="M266.626 80.6704H252.602C252.244 80.6704 251.914 80.8614 251.735 81.1704L244.724 93.3164C244.545 93.6254 244.545 94.0064 244.724 94.3164L251.735 106.46C251.914 106.77 252.244 106.96 252.602 106.96H266.626C266.982 106.96 267.313 106.77 267.491 106.46L274.504 94.3164C274.682 94.0064 274.682 93.6254 274.504 93.3164L267.491 81.1704C267.313 80.8614 266.982 80.6704 266.626 80.6704Z" stroke="#1A1A1A" stroke-width="2" stroke-linecap="round" stroke-linejoin="round"/>
</g>
</svg>

<svg width="318" height="317" fill="none" xmlns="http://www.w3.org/2000/svg"><g stroke-width="2" stroke-linecap="round" stroke-linejoin="round"><path d="M143.42 9C67.9 16.79 9 80.62 9 158.2c0 82.84 67.16 150 150 150 77.59 0 141.41-58.9 149.2-134.42" stroke="#B2B2B2"/><path d="M174.58 9c70.41 7.26 126.36 63.22 133.62 133.62" stroke="#231F20"/><path d="M46.87 201.02A119.52 119.52 0 0139 158.2a119.5 119.5 0 0129.44-78.73M59.81 225.75a119.88 119.88 0 0099.2 52.45c61 0 111.35-45.51 119-104.42M89.05 60.68a119.37 119.37 0 0154.37-21.48" stroke="#B2B2B2"/><path d="M269.06 110.3a119.12 119.12 0 018.94 32.32M174.58 39.2a119.77 119.77 0 0174.49 39.7M174.58 69.55a90.03 90.03 0 0173.07 73.07" stroke="#231F20"/><path d="M211.79 231.08a89.9 89.9 0 0035.86-57.3M143.42 69.55a90.01 90.01 0 1043.47 174.23" stroke="#B2B2B2"/><path d="M174.58 100.25a60.08 60.08 0 0142.38 42.37" stroke="#231F20"/><path d="M143.42 100.25a60.01 60.01 0 1073.54 73.53" stroke="#B2B2B2"/><path clip-rule="evenodd" d="M174 158.2a15 15 0 10-30 0 15 15 0 0030 0z" stroke="#231F20"/><path clip-rule="evenodd" d="M316.41 158.2c0-86.7-70.47-157-157.4-157-86.94 0-157.42 70.3-157.42 157s70.48 157 157.41 157c86.94 0 157.41-70.3 157.41-157z" stroke="#231F20"/><path d="M174 158.2h134.2" stroke="#231F20"/><path clip-rule="evenodd" d="M209.73 238.2a10 10 0 11-20 0 10 10 0 0120 0z" stroke="#B2B2B2"/><path clip-rule="evenodd" d="M204.73 238.2a5 5 0 11-10 0 5 5 0 0110 0zM72.94 77.86a10 10 0 1110-17.33 10 10 0 01-10 17.33z" stroke="#B2B2B2"/><path clip-rule="evenodd" d="M75.44 73.53a5 5 0 115-8.66 5 5 0 01-5 8.66zM47.47 222.5a10 10 0 1110-17.32 10 10 0 01-10 17.32z" stroke="#B2B2B2"/><path clip-rule="evenodd" d="M49.97 218.17a5 5 0 115-8.66 5 5 0 01-5 8.66z" stroke="#B2B2B2"/><path clip-rule="evenodd" d="M266.63 80.67H252.6a1 1 0 00-.86.5l-7.02 12.15a1 1 0 000 1l7.02 12.14c.17.31.5.5.86.5h14.03a1 1 0 00.86-.5l7.01-12.14a1 1 0 000-1l-7-12.15a1 1 0 00-.87-.5z" stroke="#1A1A1A"/></g></svg>
